app/dist/common/images/rcm-technologies.svg

<svg height="18" viewBox="0 0 18 18" width="18" xmlns="http://www.w3.org/2000/svg"><path d="m0 0h18v18h-18z" fill="#f0f3fa"/><path d="m3.6 10v-3h1.45c.63 0 .95.49.95.95 0 .39-.25.73-.6.88l.6 1.17h-.5l-.55-1.1h-.93v1.1zm1.4-1.5c.35 0 .55-.28.55-.55a.53.53 0 0 0 -.55-.54h-.98v1.09zm4.5.61c-.2.53-.65.89-1.38.89-.99 0-1.52-.67-1.52-1.5s.6-1.5 1.52-1.5c.71 0 1.2.42 1.38 1l-.44.1c-.1-.38-.5-.65-.95-.65-.58 0-1 .41-1 1.05 0 .59.42 1.05 1 1.05.38 0 .77-.17.96-.55z"/><path d="m8.63 13.7c3.47 0 5.87-2.42 5.87-5.55 0-1.37-.28-2.71-1.16-4.15a6.31 6.31 0 0 1 2.16 4.78c0 3.67-2.73 6.22-6.32 6.22-2.36 0-4.68-1.19-5.68-3.16a7.87 7.87 0 0 0 5.13 1.86z" fill="#1b69b1"/><path d="m10 7h.4l1.1 2.32 1.1-2.32h.4v3h-.4v-2.1l-.96 2.1h-.28l-.95-2.09v2.09h-.41z"/></svg>

<!-- by TradingView --><svg xmlns="http://www.w3.org/2000/svg" width="18" height="18" viewBox="0 0 18 18"><path fill="#F0F3FA" d="M0 0h18v18H0z"/><path d="M3.6 10V7h1.45c.63 0 .95.49.95.95 0 .39-.25.73-.6.88L6 10h-.5l-.55-1.1h-.93V10H3.6ZM5 8.5c.35 0 .55-.28.55-.55A.53.53 0 0 0 5 7.41h-.98V8.5H5ZM9.5 9.11c-.2.53-.65.89-1.38.89-.99 0-1.52-.67-1.52-1.5S7.2 7 8.12 7c.71 0 1.2.42 1.38 1l-.44.1c-.1-.38-.5-.65-.95-.65-.58 0-1 .41-1 1.05 0 .59.42 1.05 1 1.05.38 0 .77-.17.96-.55l.43.11Z"/><path d="M8.63 13.7c3.47 0 5.87-2.42 5.87-5.55 0-1.37-.28-2.71-1.16-4.15a6.31 6.31 0 0 1 2.16 4.78c0 3.67-2.73 6.22-6.32 6.22-2.36 0-4.68-1.19-5.68-3.16a7.87 7.87 0 0 0 5.13 1.86Z" fill="#1B69B1"/><path d="M10 7h.4l1.1 2.32L12.6 7h.4v3h-.4V7.9l-.96 2.1h-.28l-.95-2.09V10H10V7Z"/></svg>
